X: 20289
T: John  Dory
R: jig
M: 6/8
K: Dmajor
A|B2 .A B2 .c|d2 .A A2 .F|G2 .F E2 .A|D3 D2 .A|d2 .d e2 .e|f2 .f f2 .f|
e2 .d d2 .c|d3 d2:|:.F|G2 .F E2 .A|D3 d2 .F|G2 .F E2 .A|D3 D2:|

